X:2
T:Gold Ring, pt.2
R:jig
M:6/8
L:1/8
K:G
g|fdd edd|fdd edd|fdd edd|cAF G2g|
fdd edd|fdd edd|(4.f.gag fed|cAF G2:|
d|~g3 f2d|cAG GBd|~g3 f2 d|cDE ~F3|
~g3 fad|~g3 fad|gbg afd|cAF G2:|
<abc>
